packages/icon/src/svg/volume-medium.icon.svg

<svg width="24" height="24" viewBox="0 0 24 24" fill="none" xmlns="http://www.w3.org/2000/svg">
<path fill-rule="evenodd" clip-rule="evenodd" d="M7 7.99988L12.1465 2.85352C12.3417 2.6582 12.6583 2.6582 12.8535 2.85352C12.9473 2.94727 13 3.07446 13 3.20703V20.7928C13 21.069 12.7761 21.2928 12.5 21.2928C12.3674 21.2928 12.2402 21.2401 12.1465 21.1464L7 15.9999H4C3.44775 15.9999 3 15.5522 3 14.9999V8.99988C3 8.44763 3.44775 7.99988 4 7.99988H7ZM15 17.7454C17.8378 17.2693 20 14.8014 20 11.8284C20 8.85535 17.8378 6.38745 15 5.91138V7.95435C16.7252 8.39844 18 9.9646 18 11.8284C18 13.6921 16.7252 15.2583 15 15.7024V17.7454ZM5 13.8284V9.82837H8L11 6.82837V16.8284L8 13.8284H5Z" fill="white"/>
</svg>

<svg aria-label="volume medium icon" viewBox="0 0 24 24"><path fill-rule="evenodd" clip-rule="evenodd" d="M7 8l5.146-5.146a.5.5 0 01.854.353v17.586a.5.5 0 01-.854.353L7 16H4a1 1 0 01-1-1V9a1 1 0 011-1h3zm8 9.745a6.002 6.002 0 000-11.834v2.043a4.002 4.002 0 010 7.748v2.043zM5 13.828v-4h3l3-3v10l-3-3H5z"/></svg>
